resources/icons/20px/detection.svg

<svg width="20" height="20" viewBox="0 0 20 20" fill="none" xmlns="http://www.w3.org/2000/svg">
<path d="M1 0L6 0C6.26522 0 6.51957 0.105357 6.70711 0.292893C6.89464 0.48043 7 0.734784 7 1C7 1.26522 6.89464 1.51957 6.70711 1.70711C6.51957 1.89464 6.26522 2 6 2H2V6C2 6.26522 1.89464 6.51957 1.70711 6.70711C1.51957 6.89464 1.26522 7 1 7C0.734784 7 0.48043 6.89464 0.292893 6.70711C0.105357 6.51957 0 6.26522 0 6L0 1C0 0.734784 0.105357 0.48043 0.292893 0.292893C0.48043 0.105357 0.734784 0 1 0ZM0 19L0 14C0 13.7348 0.105357 13.4804 0.292893 13.2929C0.48043 13.1054 0.734784 13 1 13C1.26522 13 1.51957 13.1054 1.70711 13.2929C1.89464 13.4804 2 13.7348 2 14V18H6C6.26522 18 6.51957 18.1054 6.70711 18.2929C6.89464 18.4804 7 18.7348 7 19C7 19.2652 6.89464 19.5196 6.70711 19.7071C6.51957 19.8946 6.26522 20 6 20H1C0.734784 20 0.48043 19.8946 0.292893 19.7071C0.105357 19.5196 0 19.2652 0 19ZM19 20H14C13.7348 20 13.4804 19.8946 13.2929 19.7071C13.1054 19.5196 13 19.2652 13 19C13 18.7348 13.1054 18.4804 13.2929 18.2929C13.4804 18.1054 13.7348 18 14 18H18V14C18 13.7348 18.1054 13.4804 18.2929 13.2929C18.4804 13.1054 18.7348 13 19 13C19.2652 13 19.5196 13.1054 19.7071 13.2929C19.8946 13.4804 20 13.7348 20 14V19C20 19.2652 19.8946 19.5196 19.7071 19.7071C19.5196 19.8946 19.2652 20 19 20ZM20 1V6C20 6.26522 19.8946 6.51957 19.7071 6.70711C19.5196 6.89464 19.2652 7 19 7C18.7348 7 18.4804 6.89464 18.2929 6.70711C18.1054 6.51957 18 6.26522 18 6V2H14C13.7348 2 13.4804 1.89464 13.2929 1.70711C13.1054 1.51957 13 1.26522 13 1C13 0.734784 13.1054 0.48043 13.2929 0.292893C13.4804 0.105357 13.7348 0 14 0L19 0C19.2652 0 19.5196 0.105357 19.7071 0.292893C19.8946 0.48043 20 0.734784 20 1ZM5 6C5 5.73478 5.10536 5.48043 5.29289 5.29289C5.48043 5.10536 5.73478 5 6 5H14C14.2652 5 14.5196 5.10536 14.7071 5.29289C14.8946 5.48043 15 5.73478 15 6V14C15 14.2652 14.8946 14.5196 14.7071 14.7071C14.5196 14.8946 14.2652 15 14 15H6C5.73478 15 5.48043 14.8946 5.29289 14.7071C5.10536 14.5196 5 14.2652 5 14V6ZM7 13H13V7H7V13Z" fill="black"/>
</svg>

<svg xmlns="http://www.w3.org/2000/svg" viewBox="0 0 20 20">
  <path d="M1 0h5a1 1 0 0 1 0 2H2v4a1 1 0 0 1-2 0V1a1 1 0 0 1 1-1M0 19v-5a1 1 0 1 1 2 0v4h4a1 1 0 0 1 0 2H1a1 1 0 0 1-1-1m19 1h-5a1 1 0 0 1 0-2h4v-4a1 1 0 0 1 2 0v5a1 1 0 0 1-1 1m1-19v5a1 1 0 0 1-2 0V2h-4a1 1 0 1 1 0-2h5a1 1 0 0 1 1 1M5 6a1 1 0 0 1 1-1h8a1 1 0 0 1 1 1v8a1 1 0 0 1-1 1H6a1 1 0 0 1-1-1zm2 7h6V7H7z"/>
</svg>
